X: 1
T: The Old Maids Of Galway
R: reel
M: 4/4
L: 1/8
K: Gmin
|:GD (3DDD GDFD|CDB,C DGGF|G4 GDFD|
CDB,C DGBA|GD (3DDD GDFD|CDB,C DGGF|
G3 A BAGF|1(3CCC DF G3 F:|2 (3CCC DF G3 A||
|:B2 AB G3 A|BGAF Gc c2|B2 AB G2 FD|
|C2 B,C DGGA|B2 AB G3 A|BGAF Gc c2|
|cdcB G2 FD|1 C2 B,C DG[GG,]A :|2 C2 B,C DG[G2G,2]||


Tune 976	Setting 25086

